X:1
T:En dro d'Elven
C:Traditionnel Vannetais, fichier abc : Bernard Loffet
L:1/8
Q:350
M:2/2
K:G
 [G2G,,2G,2][d2G,,2G,2] [B2G,,2G,2]G2 | [d2G,,2G,2][dG,,G,]e [dG,,G,]cAB | [c2C,,2C,2][cC,,C,]d [B2C,,2C,2]G2 | \
 [AD,,D,]B[cD,,D,]B [AD,,D,]dcd | [G2G,,2G,2][d2G,,2G,2] [B2G,,2G,2]G2 | [d2G,,2G,2][dG,,G,]e [dG,,G,]cAB | \
 [c2C,,2C,2][cC,,C,]d [B2C,,2C,2]GA | [(3BD,,D,]AG[AD,,D,]F [G4G,,4G,4] | [G2G,,2G,2][c2C,,2C,2] [A2D,,2D,2]d2 | \
 [G2G,,2G,2][GG,,G,]A [BG,,G,]cAB | [c2C,,2C,2][cC,,C,]d [B2C,,2C,2]G2 | [AD,,D,]B[cD,,D,]B [AD,,D,]dcd | \
 [G2G,,2G,2][c2C,,2C,2] [A2D,,2D,2]d2 | [G2G,,2G,2][GG,,G,]A [BG,,G,]cAB | [c2C,,2C,2][cC,,C,]d [B2C,,2C,2]GA | \
 [(3BD,,D,]AG[AD,,D,]F [G4G,,4G,4] | \
K:C
W:Created with TablEdit http://www.tabledit.com/ by Bernard Loffet
